X: 1
T: Confess
T: Confesse, His Tune
O: Playford 1651
B: Playford 1651
B: Barnes v.1 p.22
Z: 2002 John Chambers <jc:trillian.mit.edu>
M: 6/8
L: 1/8
K: G
|:\
"Em"E2F G2A | "Em"B2B B2B |\
"Am"c3 B2B | "B7"e3 ^d3 ::\
"D"f2d "Em"g2e | "Bm"fd2 B2c |
"G"dB2 A2B | "Am"BA2 "B7"B3 |\
"Em"G2A B>cB | "Am"cB2 A3 |\
"Em"G2e ^d2e | "B7"f^d2 "Em"e3 :| 
